X: 6865
T: Charlie O'Neill's
R: strathspey
M: 4/4
K: Eminor
A|BEBE cBcA|BEBE cAFA|BEBE cBcB|Addc BGGA|
BEBE cBcA|BEBE cAFA|BEBE cBcB|Addc BGBd||
(3gag fg (3BBB BA|G2 ag fdef|(3gag fg (3BBB BA|GBdc BGBd|
(3gag fg (3BBB BA|G2 ag fdef|(3gag fg (3BBB BA|GBdc BGBA||

